assets/images/logo.svg

<svg width="95" height="55" viewBox="0 0 95 55" fill="none" xmlns="http://www.w3.org/2000/svg">
<g clip-path="url(#clip0_459_629)">
<path d="M9.81886 38.0527V40.5074H2.77042C2.61965 40.5074 2.55133 40.5898 2.55133 40.7429V41.7983H9.77646V43.5816H2.55133V44.6983C2.55133 44.8632 2.61965 44.9456 2.77042 44.9456H9.81886V47.3179H1.3711C0.508887 47.3179 0.0683594 46.8938 0.0683594 46.0293V39.3012C0.0683594 38.4649 0.508887 38.0527 1.38523 38.0527H9.81886Z" fill="white"/>
<path d="M23.3857 38.0527C23.3065 38.1633 23.2148 38.2645 23.1124 38.3542L18.9568 42.3731L23.6472 47.0352C23.7334 47.1244 23.8122 47.2205 23.8827 47.3226H20.3232C20.261 47.2233 20.1875 47.1316 20.1041 47.0493L17.157 43.9868L14.0427 47.0493C13.9485 47.1435 13.866 47.2401 13.8071 47.3226H10.5303C10.5965 47.2173 10.6757 47.1208 10.7658 47.0352L15.5504 42.3731L11.4231 38.3542C11.3198 38.2689 11.2314 38.167 11.1616 38.0527H14.6175C14.6889 38.1586 14.7676 38.2593 14.8531 38.3542L17.3078 40.8513L19.8991 38.3542C19.9974 38.2645 20.0844 38.1632 20.1583 38.0527H23.3857Z" fill="white"/>
<path d="M31.5509 38.0527C32.8678 38.0527 33.7182 38.4366 34.3354 39.0538C34.953 39.666 35.3182 40.4877 35.3588 41.3563C35.3993 42.2249 35.1123 43.0771 34.5545 43.7442C33.9232 44.498 32.9762 44.9927 31.5509 44.9927H27.287V47.3226H24.7993V38.6298C24.7993 38.2458 25.0066 38.0527 25.4024 38.0527H31.5509ZM31.6051 42.7147C32.154 42.7147 32.4697 42.5522 32.6746 42.2765C32.8192 42.0882 32.8964 41.8567 32.8937 41.6193C32.9 41.3634 32.8166 41.1135 32.6581 40.9125C32.5264 40.7665 32.3624 40.6532 32.1792 40.5817C31.996 40.5101 31.7986 40.4822 31.6028 40.5003H27.4637C27.3553 40.5003 27.287 40.5568 27.287 40.6935V42.7076L31.6051 42.7147Z" fill="white"/>
<path d="M46.0978 38.0527V40.5074H39.0517C38.9009 40.5074 38.8302 40.5898 38.8302 40.7429V41.7983H46.0577V43.5816H38.8302V44.6983C38.8302 44.8632 38.9009 44.9456 39.0517 44.9456H46.0978V47.3179H37.6523C36.7878 47.3179 36.3496 46.8938 36.3496 46.0293V39.3012C36.3496 38.4649 36.7878 38.0527 37.6665 38.0527H46.0978Z" fill="white"/>
<path d="M49.7443 47.3226H47.2637V38.6298C47.2637 38.2458 47.4686 38.0527 47.8809 38.0527H54.4629C55.6007 38.0527 56.3263 38.3966 56.8351 38.9313C57.3051 39.4226 57.5697 40.0749 57.5748 40.7547C57.5748 41.4944 57.3558 42.1941 56.6961 42.6747C57.3134 43.0445 57.589 43.5392 57.589 44.5946V46.4462C57.5861 46.7389 57.5994 47.0314 57.629 47.3226H55.1201C55.0927 47.118 55.0794 46.9118 55.0801 46.7054V44.8537C55.0801 44.2648 54.7903 44.0316 54.0648 44.0316H49.7443V47.3226ZM54.1331 41.9208C54.2663 41.9295 54.3997 41.9068 54.5224 41.8544C54.6452 41.802 54.7539 41.7215 54.8398 41.6193C54.9503 41.4866 55.0133 41.3207 55.0188 41.1481C55.0207 40.9541 54.9462 40.7671 54.8115 40.6275C54.7237 40.5409 54.6183 40.474 54.5026 40.4313C54.3868 40.3887 54.2632 40.3712 54.1401 40.3801H49.9516C49.9239 40.3772 49.8958 40.3805 49.8695 40.3898C49.8432 40.399 49.8193 40.4139 49.7994 40.4336C49.7796 40.4532 49.7644 40.4769 49.7548 40.5031C49.7453 40.5293 49.7417 40.5573 49.7443 40.5851V41.9302L54.1331 41.9208Z" fill="white"/>
<path d="M69.0238 38.0527V40.5074H64.9648V47.3226H62.4701V40.5074H58.397V38.0527H69.0238Z" fill="white"/>
<path d="M72.5055 38.0527V47.3226H70.0107V38.0527H72.5055Z" fill="white"/>
<path d="M83.5849 40.5073H76.9204C76.8174 40.4957 76.7131 40.5056 76.6142 40.5364C76.5152 40.5672 76.4238 40.6183 76.3456 40.6864C76.2836 40.748 76.2345 40.8215 76.2014 40.9024C76.1682 40.9833 76.1516 41.0701 76.1524 41.1575C76.1524 41.252 76.1735 41.3453 76.2143 41.4305C76.255 41.5157 76.3144 41.5907 76.388 41.6499C76.5419 41.763 76.7336 41.8119 76.9228 41.7865H80.9959C82.0371 41.7865 82.7368 42.1163 83.2315 42.6228C83.7205 43.1145 84.0038 43.774 84.0239 44.4671C84.0441 45.1603 83.7995 45.8351 83.3399 46.3544C82.8334 46.9433 82.0937 47.3132 80.9959 47.3132H73.799V44.9503H80.5459C80.9299 44.9503 81.1208 44.8679 81.2527 44.7147C81.3522 44.5961 81.4057 44.4456 81.4034 44.2907C81.4058 44.107 81.3365 43.9295 81.2103 43.796C81.0878 43.6594 80.9087 43.591 80.553 43.591H76.7838C75.5494 43.591 74.8379 43.2612 74.3432 42.7547C73.8372 42.2387 73.556 41.5434 73.5611 40.8207C73.5641 40.0968 73.8498 39.4028 74.3574 38.8866C74.8497 38.3801 75.5494 38.0503 76.7838 38.0503H83.5849V40.5073Z" fill="white"/>
<path d="M94.7655 38.0527V40.5074H87.7123C87.5615 40.5074 87.4932 40.5898 87.4932 40.7429V41.7983H94.7184V43.5816H87.4932V44.6983C87.4932 44.8632 87.5615 44.9456 87.7123 44.9456H94.7655V47.3179H86.313C85.4484 47.3179 85.0103 46.8938 85.0103 46.0293V39.3012C85.0103 38.4649 85.4484 38.0527 86.3271 38.0527H94.7655Z" fill="white"/>
<path d="M40.1118 12.0639L43.5395 23.037L54.5503 6.14147L52.0791 5.91061L61.4574 0L60.8308 11.0697L59.4314 9.01786L41.6384 30.5519L40.1118 12.0639Z" fill="white"/>
<path d="M70.0135 15.9579C70.037 12.1557 67.8061 9.88243 65.3161 8.52786C64.2231 7.94579 63.02 7.59987 61.7848 7.51252L61.5799 11.1121V11.2181C65.024 12.8224 65.0287 15.5315 65.0287 15.5315C65.17 20.5917 59.9143 21.4422 58.6564 21.5717V11.4419L58.6257 11.4702V11.1734L53.9448 16.8272V29.1526H58.6564V25.5718C70.3292 24.2384 70.0135 15.9579 70.0135 15.9579Z" fill="white"/>
<path d="M41.5015 11.204L50.3167 11.2488L53.2285 6.77282L52.0082 6.65738L51.146 6.57729H35.3058C31.9276 7.04844 29.6049 8.50901 28.0194 10.1604C26.4873 11.7644 25.4484 13.7749 25.0266 15.9526C24.6048 18.1303 24.8177 20.3833 25.6401 22.4434C28.3045 29.1007 36.0243 29.5601 36.0243 29.5601V24.8038C28.9735 24.0194 29.3646 17.8166 29.3646 17.8166C29.8876 11.8118 35.1762 11.1569 35.1762 11.1569L40.8089 11.1993L41.5015 11.204Z" fill="white"/>
</g>
<defs>
<clipPath id="clip0_459_629">
<rect width="94.8289" height="55" fill="white"/>
</clipPath>
</defs>
</svg>

<svg width="95" height="55" fill="none" xmlns="http://www.w3.org/2000/svg"><g clip-path="url(#a)" fill="#fff"><path d="M9.819 38.053v2.454H2.77c-.15 0-.219.083-.219.236v1.055h7.225v1.784H2.551v1.116c0 .165.069.248.22.248h7.048v2.372H1.37c-.862 0-1.303-.424-1.303-1.289v-6.728c0-.836.44-1.248 1.317-1.248H9.82ZM23.386 38.053c-.08.11-.171.212-.274.301l-4.155 4.02 4.69 4.661c.086.09.165.186.236.288h-3.56a1.51 1.51 0 0 0-.219-.274l-2.947-3.062-3.114 3.062c-.095.095-.177.191-.236.274H10.53c.067-.106.146-.202.236-.288l4.784-4.662-4.127-4.019a1.207 1.207 0 0 1-.261-.301h3.455c.072.106.15.206.236.301l2.455 2.497 2.591-2.497a1.65 1.65 0 0 0 .26-.301h3.227ZM31.55 38.053c1.318 0 2.168.384 2.785 1a3.47 3.47 0 0 1 .22 4.691c-.632.754-1.579 1.249-3.004 1.249h-4.264v2.33h-2.488V38.63c0-.384.208-.577.603-.577h6.149Zm.055 4.662c.549 0 .865-.163 1.07-.439a1.06 1.06 0 0 0 .219-.657 1.098 1.098 0 0 0-.236-.706 1.264 1.264 0 0 0-1.055-.413h-4.14c-.108 0-.176.057-.176.194v2.014l4.318.007ZM46.098 38.053v2.454h-7.046c-.151 0-.222.083-.222.236v1.055h7.228v1.784H38.83v1.116c0 .165.07.248.222.248h7.046v2.372h-8.446c-.864 0-1.302-.424-1.302-1.289v-6.728c0-.836.438-1.248 1.316-1.248h8.432ZM49.744 47.323h-2.48V38.63c0-.384.205-.577.617-.577h6.582c1.138 0 1.863.344 2.372.878.47.492.735 1.144.74 1.824 0 .74-.22 1.44-.879 1.92.617.37.893.864.893 1.92v1.851c-.003.293.01.585.04.877H55.12a4.534 4.534 0 0 1-.04-.618v-1.851c0-.59-.29-.822-1.015-.822h-4.32v3.29Zm4.39-5.402a.85.85 0 0 0 .706-.302.775.775 0 0 0 .179-.47.74.74 0 0 0-.207-.522.868.868 0 0 0-.672-.247h-4.188a.188.188 0 0 0-.208.205v1.345l4.39-.01ZM69.024 38.053v2.454h-4.06v6.816H62.47v-6.816h-4.073v-2.454h10.627ZM72.505 38.053v9.27h-2.494v-9.27h2.495ZM83.585 40.507H76.92a.747.747 0 0 0-.574.18.653.653 0 0 0 .042.963.737.737 0 0 0 .535.136h4.073c1.041 0 1.74.33 2.236.837a2.728 2.728 0 0 1 .108 3.731c-.507.59-1.246.96-2.344.96h-7.197V44.95h6.747c.384 0 .575-.082.707-.235.1-.119.153-.27.15-.424a.707.707 0 0 0-.193-.495c-.122-.137-.301-.205-.657-.205h-3.77c-1.234 0-1.945-.33-2.44-.836a2.735 2.735 0 0 1-.782-1.934 2.775 2.775 0 0 1 .796-1.934c.493-.507 1.192-.837 2.427-.837h6.8v2.457ZM94.765 38.053v2.454h-7.053c-.15 0-.22.083-.22.236v1.055h7.226v1.784h-7.225v1.116c0 .165.068.248.219.248h7.053v2.372h-8.453c-.864 0-1.302-.424-1.302-1.289v-6.728c0-.836.438-1.248 1.317-1.248h8.438ZM2.38 53.947a1.494 1.494 0 0 1-.394.794 1.032 1.032 0 0 1-.745.261 1.068 1.068 0 0 1-.925-.454 2.184 2.184 0 0 1-.325-1.289c-.028-.44.086-.878.325-1.248a1.081 1.081 0 0 1 .925-.436c.253-.01.5.074.693.235.2.191.34.437.403.707l-.283.068a1.296 1.296 0 0 0-.327-.567.725.725 0 0 0-.504-.184.755.755 0 0 0-.674.374 2.49 2.49 0 0 0 0 2.14.79.79 0 0 0 .707.383.73.73 0 0 0 .539-.21c.161-.178.27-.398.313-.635l.271.061ZM4.023 53.292c-.022-.443.104-.88.359-1.244a1.178 1.178 0 0 1 1.884 0 2.356 2.356 0 0 1 0 2.488 1.178 1.178 0 0 1-1.884 0c-.255-.363-.38-.801-.359-1.244Zm.323 0c-.021.373.07.744.262 1.065a.852.852 0 0 0 1.427 0 2.271 2.271 0 0 0 0-2.12.854.854 0 0 0-1.427 0c-.19.317-.282.685-.262 1.055ZM8.582 54.946v-3.31h.544l.907 2.827.914-2.827h.542v3.31h-.283v-2.997h-.07l-.97 2.997h-.26l-.97-2.997h-.071v2.997h-.283ZM14.556 51.636c.313-.02.625.062.886.236a.814.814 0 0 1 .297.687.853.853 0 0 1-.285.693 1.31 1.31 0 0 1-.844.236h-.605v1.465h-.306v-3.317h.857Zm-.551 1.569h.678a.791.791 0 0 0 .545-.17.61.61 0 0 0 .19-.47.59.59 0 0 0-.202-.493.999.999 0 0 0-.62-.16h-.591v1.293ZM18.302 54.946v-3.044h-.98v-.266h2.27v.266h-.98v3.044h-.31ZM20.794 54.946l1.037-3.31h.412l1.037 3.31h-.316l-.332-1.086h-1.209l-.33 1.086h-.299Zm.707-1.352h1.05l-.52-1.746-.53 1.746ZM26.08 51.636c.297-.02.592.052.846.205a.706.706 0 0 1 .288.608.77.77 0 0 1-.111.43.804.804 0 0 1-.358.279v.023a.962.962 0 0 1 .445.32.85.85 0 0 1 .141.505.868.868 0 0 1-.28.707 1.31 1.31 0 0 1-.848.235h-1.088v-3.312h.966Zm0 .266h-.654v1.178h.742a.854.854 0 0 0 .544-.153.52.52 0 0 0 .19-.434.512.512 0 0 0-.202-.442 1.088 1.088 0 0 0-.624-.149h.005Zm.045 1.435h-.706v1.343h.793c.211.013.42-.049.59-.175a.613.613 0 0 0 .204-.494.596.596 0 0 0-.219-.507 1.11 1.11 0 0 0-.666-.167h.004ZM29.325 54.946v-3.31h.306v3.31h-.306ZM31.88 54.946v-3.31h.307v3.044h1.481v.266H31.88ZM35.499 54.946v-3.31h.306v3.31H35.5ZM38.656 54.946v-3.044h-.98v-.266h2.268v.266h-.98v3.044h-.308ZM43.73 54.68v.266h-1.97v-3.31h1.9v.266h-1.59v1.16h1.149v.265h-1.15v1.353h1.661Zm-1.076-3.346h-.208l.471-.784h.34l-.603.784ZM47.886 54.946l1.036-3.31h.413l1.034 3.31h-.316l-.332-1.086h-1.209l-.332 1.086h-.294Zm.706-1.352h1.051l-.523-1.746-.527 1.746ZM52.41 53.864a.875.875 0 1 0 1.746 0v-2.228h.307v2.228a1.128 1.128 0 0 1-.302.844 1.451 1.451 0 0 1-1.753 0 1.116 1.116 0 0 1-.303-.843v-2.229h.306v2.228ZM56.663 54.946v-3.31h.806a1.55 1.55 0 0 1 1.178.405 1.648 1.648 0 0 1 .39 1.204c.033.457-.108.91-.395 1.267a1.498 1.498 0 0 1-1.164.434h-.815Zm.306-.266h.471a1.25 1.25 0 0 0 .962-.337c.23-.296.341-.668.31-1.042 0-.499-.096-.855-.292-1.074a1.248 1.248 0 0 0-.965-.325h-.471l-.015 2.778ZM61.03 54.946v-3.31h.307v3.31h-.306ZM64.185 54.946v-3.044h-.987v-.266h2.271v.266h-.98v3.044h-.304ZM72.091 53.947a1.477 1.477 0 0 1-.393.794c-.201.18-.465.275-.735.261a1.068 1.068 0 0 1-.924-.454 2.165 2.165 0 0 1-.327-1.289 2.052 2.052 0 0 1 .318-1.258 1.082 1.082 0 0 1 .923-.436c.252-.01.5.074.693.236.201.19.342.436.405.707l-.285.068a1.273 1.273 0 0 0-.328-.568.707.707 0 0 0-.501-.184.751.751 0 0 0-.672.39 1.998 1.998 0 0 0-.235 1.064 1.96 1.96 0 0 0 .25 1.074.785.785 0 0 0 .692.384.732.732 0 0 0 .54-.21c.16-.18.268-.402.308-.64l.271.061ZM73.737 53.292c-.022-.443.103-.88.356-1.244a1.179 1.179 0 0 1 1.885 0 2.356 2.356 0 0 1 0 2.488 1.179 1.179 0 0 1-1.885 0 1.996 1.996 0 0 1-.356-1.244Zm.32 0c-.02.37.072.74.262 1.058a.852.852 0 0 0 1.428 0 2.253 2.253 0 0 0 0-2.12.852.852 0 0 0-1.428 0c-.191.32-.282.69-.261 1.062ZM78.576 51.876v3.063h-.301v-3.303h.5l1.585 2.794v-2.794h.299v3.31h-.328l-1.755-3.07ZM82.577 54.154l.266-.11c.067.201.185.381.344.523a.789.789 0 0 0 .513.17.707.707 0 0 0 .504-.178.605.605 0 0 0 .191-.47.564.564 0 0 0-.124-.38 1.06 1.06 0 0 0-.425-.27 8.087 8.087 0 0 0-.433-.159 2.37 2.37 0 0 1-.346-.136.956.956 0 0 1-.34-.295.688.688 0 0 1-.1-.386.836.836 0 0 1 .254-.648.976.976 0 0 1 .695-.236c.232-.008.46.06.65.196.188.153.325.36.39.594l-.26.082a1.019 1.019 0 0 0-.316-.457.762.762 0 0 0-.472-.148.624.624 0 0 0-.445.16.533.533 0 0 0-.172.414.489.489 0 0 0 .11.323.752.752 0 0 0 .345.215c.059.023.146.054.259.091.219.064.43.153.629.264.133.08.246.19.328.323.07.127.105.27.1.415a.894.894 0 0 1-.272.69c-.205.18-.47.273-.743.259a1.105 1.105 0 0 1-.692-.207 1.362 1.362 0 0 1-.438-.639ZM88.59 54.68v.266h-1.966v-3.31h1.896v.266h-1.59v1.16h1.152v.265H86.93v1.353h1.66ZM90.485 54.946v-3.31h.306v3.31h-.306ZM93.041 54.946v-3.31h.311v3.044h1.482v.266H93.04ZM40.111 12.064l3.428 10.973 11.01-16.896-2.47-.23L61.457 0l-.627 11.07-1.4-2.052-17.792 21.534-1.527-18.488Z"/><path d="M70.013 15.958c.024-3.802-2.207-6.076-4.697-7.43a8.84 8.84 0 0 0-3.531-1.015l-.205 3.6v.105c3.444 1.604 3.449 4.313 3.449 4.313.141 5.06-5.115 5.911-6.373 6.04v-10.13l-.03.03v-.298l-4.681 5.654v12.326h4.711v-3.581c11.673-1.334 11.357-9.614 11.357-9.614ZM41.502 11.204l8.815.045 2.911-4.476-1.22-.116-.862-.08h-15.84c-3.378.471-5.701 1.932-7.287 3.583a11.572 11.572 0 0 0-2.379 12.283c2.665 6.658 10.384 7.117 10.384 7.117v-4.756c-7.05-.785-6.66-6.987-6.66-6.987.524-6.005 5.812-6.66 5.812-6.66l5.633.042.693.005Z"/></g><defs><clipPath id="a"><path fill="#fff" d="M0 0h94.829v55H0z"/></clipPath></defs></svg>
